public/icons/right_arrow_icon.svg

<svg width="24" height="24" viewBox="0 0 24 24" fill="none" xmlns="http://www.w3.org/2000/svg">
<path d="M12.1415 6.5899C11.9075 6.71614 11.7616 6.95618 11.7616 7.21726V11.2827H3.73429C3.32896 11.2827 3 11.604 3 12C3 12.3959 3.32896 12.7172 3.73429 12.7172H11.7616V16.7827C11.7616 17.0447 11.9075 17.2848 12.1415 17.4101C12.3755 17.5372 12.6614 17.5286 12.8875 17.39L20.6573 12.6073C20.8708 12.4753 21 12.2467 21 12C21 11.7532 20.8708 11.5247 20.6573 11.3927L12.8875 6.60998C12.7681 6.5373 12.632 6.5 12.4959 6.5C12.3745 6.5 12.2521 6.5306 12.1415 6.5899" fill="#4E4B66"/>
</svg>

<svg width="24" height="24" fill="none" xmlns="http://www.w3.org/2000/svg"><path d="M12.142 6.59a.715.715 0 0 0-.38.627v4.066H3.734A.726.726 0 0 0 3 12c0 .396.329.717.734.717h8.028v4.066c0 .262.146.502.38.627.234.127.52.119.745-.02l7.77-4.783A.714.714 0 0 0 21 12a.714.714 0 0 0-.343-.607l-7.77-4.783a.754.754 0 0 0-.745-.02" fill="#4E4B66"/></svg>
